X:382
T:Rassay House 
C:Joe Buchanan's Scottish Tome - Page 326.0
I:326 0
C:A. M. Lee
R:March
Z:Carl Allison
L:1/16
M:2/4
K:D
A>B | "A" c>dd>e e>ff>a | a>fg>f e2f>g | a2a>f g>ee>e | "E7" c>ee>c B2>AB |
"A" c>dd>e e>ff>a | a>fg>f "E7" e2f>g | "A" a>ee>f f>ed>B | A4 A2 :|
A>B | "A" c>dd>c c>ee>B | B>cc>d d2f>g | "A" a>ee>f f>ee>c | c>ee>c "E7" B2A>B |
"A" c>dd>c c>ee>B | "E7" B>cc>d d2f>g | "A" a>ee>f f>ed>B | A4 A2 :|
A>B | "A" c>AB>c A>eA>e | e>ff>e c2>AB | c>AB>c A>eA>e | f>ec>A "E7" B2A>B |
"A" c>AB>c A>eA>e | f>ff>e c2>fg | a>ee>f f>ed>B | A4 A2 :|
f>g | "A" a2a>f g>ee>a | a>fg>f e2f>g | a2a>f g>ee>c | "E7" c>ee>c B2f>g |
"A" a2a>f g>ee>a | a>fg>f "E7" e2f>g | "A" a>ee>f f>ed>B | A4 A2f>g :|
"A" a2a>f "E7" g>ee>a | "A" a>fg>f "E7" e2f>g | "A" a2a>f g>ee>c | c>ee>c "E7" B2A>B |
"A" c>dd>c c>ee>B | "E7" B>cc>d d2f>g | "A" a>ee>f f>ed>B | A4 A2 :|

